X: 22586
T: Lady Of The House, The
R: reel
M: 4/4
K: Gmajor
Hg2e|:dBBA ~B3A|GABd ~e2dB|e~A3 A2Bc|dgbg aged|
e~B3 B2BA|~G2Bd eBdB|G2GB A2dg|1 bgag efge:|2 bgag efg2||
|:~g3f ~e2d2|efgf edBd|g2gf edBd|eaae fgaf|
gaba eBdB|efgf edBd|GFGB A2dg|1 bgag efg2:|2 bgag efge||

